(G-CODE GENERATED BY FLATCAM v8.916 - www.flatcam.org - Version Date: 2019/05/10)

(Name: back.drl_cnc)
(Type: G-code from Excellon)
(Units: IN)

(Created on Friday, 17 May 2019 at 11:06)

(Feedrate: 3.0 in/min)
(Feedrate rapids 3.0 in/min)

(Z_Cut: -0.1 in)
(Z_Move: 0.1 in)
(Z Toolchange: 0.5 in)
(X,Y Toolchange: 0.0000, 0.0000 in)
(Z Start: None in)
(Z End: 0.5 in)
(Steps per circle: 64)
(Postprocessor Excellon: default)

(X range:   -0.0496 ...    2.2142  in)
(Y range:   -2.4108 ...    0.0498  in)

(Spindle Speed: 2000.0 RPM)

G20
G90
G94

G01 F3.00

M5
G00 Z0.5000
G00 X0.0000 Y0.0000                
T1
M6
(MSG, Change to Tool Dia = 0.0295 ||| Total drills for tool T1 = 4)
M0

M03 S2000.0
G00 X0.7772 Y-1.0033
G01 Z-0.1000
G01 Z0
G00 Z0.1000
G00 X1.1611 Y-1.6002
G01 Z-0.1000
G01 Z0
G00 Z0.1000
G00 X1.1611 Y-1.2002
G01 Z-0.1000
G01 Z0
G00 Z0.1000
G00 X1.1772 Y-1.0033
G01 Z-0.1000
G01 Z0
G00 Z0.1000

M5
G00 Z0.5000
G00 X0.0000 Y0.0000                
T2
M6
(MSG, Change to Tool Dia = 0.0315 ||| Total drills for tool T2 = 12)
M0

M03 S2000.0
G00 X0.6394 Y-0.0978
G01 Z-0.1000
G01 Z0
G00 Z0.1000
G00 X1.1807 Y-0.7769
G01 Z-0.1000
G01 Z0
G00 Z0.1000
G00 X0.7807 Y-0.7769
G01 Z-0.1000
G01 Z0
G00 Z0.1000
G00 X0.6296 Y-1.0868
G01 Z-0.1000
G01 Z0
G00 Z0.1000
G00 X0.6296 Y-0.7868
G01 Z-0.1000
G01 Z0
G00 Z0.1000
G00 X0.5296 Y-1.0868
G01 Z-0.1000
G01 Z0
G00 Z0.1000
G00 X0.5296 Y-0.7868
G01 Z-0.1000
G01 Z0
G00 Z0.1000
G00 X0.4296 Y-1.0868
G01 Z-0.1000
G01 Z0
G00 Z0.1000
G00 X0.4296 Y-0.7868
G01 Z-0.1000
G01 Z0
G00 Z0.1000
G00 X0.3296 Y-1.0868
G01 Z-0.1000
G01 Z0
G00 Z0.1000
G00 X0.3296 Y-0.7868
G01 Z-0.1000
G01 Z0
G00 Z0.1000
G00 X0.6394 Y-0.4978
G01 Z-0.1000
G01 Z0
G00 Z0.1000

M5
G00 Z0.5000
G00 X0.0000 Y0.0000                
T3
M6
(MSG, Change to Tool Dia = 0.0394 ||| Total drills for tool T3 = 6)
M0

M03 S2000.0
G00 X0.4721 Y-0.2356
G01 Z-0.1000
G01 Z0
G00 Z0.1000
G00 X0.3737 Y-1.2199
G01 Z-0.1000
G01 Z0
G00 Z0.1000
G00 X0.7181 Y-2.1254
G01 Z-0.1000
G01 Z0
G00 Z0.1000
G00 X1.1118 Y-2.1254
G01 Z-0.1000
G01 Z0
G00 Z0.1000
G00 X0.3737 Y-1.6136
G01 Z-0.1000
G01 Z0
G00 Z0.1000
G00 X0.4721 Y-0.4620
G01 Z-0.1000
G01 Z0
G00 Z0.1000

M5
G00 Z0.5000
G00 X0.0000 Y0.0000                
T4
M6
(MSG, Change to Tool Dia = 0.0433 ||| Total drills for tool T4 = 6)
M0

M03 S2000.0
G00 X0.8823 Y-0.4620
G01 Z-0.1000
G01 Z0
G00 Z0.1000
G00 X1.0756 Y-0.1667
G01 Z-0.1000
G01 Z0
G00 Z0.1000
G00 X0.9756 Y-0.1667
G01 Z-0.1000
G01 Z0
G00 Z0.1000
G00 X0.8756 Y-0.1667
G01 Z-0.1000
G01 Z0
G00 Z0.1000
G00 X1.0823 Y-0.4620
G01 Z-0.1000
G01 Z0
G00 Z0.1000
G00 X0.9823 Y-0.4620
G01 Z-0.1000
G01 Z0
G00 Z0.1000

M5
G00 Z0.5000
G00 X0.0000 Y0.0000                
T5
M6
(MSG, Change to Tool Dia = 0.0472 ||| Total drills for tool T5 = 4)
M0

M03 S2000.0
G00 X0.4032 Y-1.8891
G01 Z-0.1000
G01 Z0
G00 Z0.1000
G00 X1.1118 Y-1.8891
G01 Z-0.1000
G01 Z0
G00 Z0.1000
G00 X1.5252 Y-1.8990
G01 Z-0.1000
G01 Z0
G00 Z0.1000
G00 X1.5252 Y-0.4029
G01 Z-0.1000
G01 Z0
G00 Z0.1000

M5
G00 Z0.5000
G00 X0.0000 Y0.0000                
T6
M6
(MSG, Change to Tool Dia = 0.0512 ||| Total drills for tool T6 = 9)
M0

M03 S2000.0
G00 X0.4130 Y-2.3321
G01 Z-0.1000
G01 Z0
G00 Z0.1000
G00 X0.5508 Y-2.3321
G01 Z-0.1000
G01 Z0
G00 Z0.1000
G00 X0.8838 Y-1.6357
G01 Z-0.1000
G01 Z0
G00 Z0.1000
G00 X0.9823 Y-1.2420
G01 Z-0.1000
G01 Z0
G00 Z0.1000
G00 X0.7854 Y-1.2420
G01 Z-0.1000
G01 Z0
G00 Z0.1000
G00 X0.3343 Y-0.5801
G01 Z-0.1000
G01 Z0
G00 Z0.1000
G00 X0.2851 Y-0.0092
G01 Z-0.1000
G01 Z0
G00 Z0.1000
G00 X0.4229 Y-0.0092
G01 Z-0.1000
G01 Z0
G00 Z0.1000
G00 X0.3343 Y-0.4423
G01 Z-0.1000
G01 Z0
G00 Z0.1000

M5
G00 Z0.5000
G00 X0.0000 Y0.0000                
T7
M6
(MSG, Change to Tool Dia = 0.0984 ||| Total drills for tool T7 = 4)
M0

M03 S2000.0
G00 X2.1650 Y0.0006
G01 Z-0.1000
G01 Z0
G00 Z0.1000
G00 X-0.0004 Y0.0006
G01 Z-0.1000
G01 Z0
G00 Z0.1000
G00 X-0.0004 Y-2.3616
G01 Z-0.1000
G01 Z0
G00 Z0.1000
G00 X2.1650 Y-2.3616
G01 Z-0.1000
G01 Z0
G00 Z0.1000
M05
G00 Z0.50
G00 X0.0 Y0.0

M02